site/src/img/icons/bag.svg

<svg height="512" viewBox="0 0 24 24" width="512" xmlns="http://www.w3.org/2000/svg"><path d="m21 6h-3a6 6 0 0 0 -12 0h-3a3 3 0 0 0 -3 3v10a5.006 5.006 0 0 0 5 5h14a5.006 5.006 0 0 0 5-5v-10a3 3 0 0 0 -3-3zm-9-4a4 4 0 0 1 4 4h-8a4 4 0 0 1 4-4zm10 17a3 3 0 0 1 -3 3h-14a3 3 0 0 1 -3-3v-10a1 1 0 0 1 1-1h3v2a1 1 0 0 0 2 0v-2h8v2a1 1 0 0 0 2 0v-2h3a1 1 0 0 1 1 1z"/></svg>

<?xml version="1.0" encoding="UTF-8"?>
<svg xmlns="http://www.w3.org/2000/svg" id="Outline" viewBox="0 0 24 24" width="512" height="512"><path d="M21,6H18A6,6,0,0,0,6,6H3A3,3,0,0,0,0,9V19a5.006,5.006,0,0,0,5,5H19a5.006,5.006,0,0,0,5-5V9A3,3,0,0,0,21,6ZM12,2a4,4,0,0,1,4,4H8A4,4,0,0,1,12,2ZM22,19a3,3,0,0,1-3,3H5a3,3,0,0,1-3-3V9A1,1,0,0,1,3,8H6v2a1,1,0,0,0,2,0V8h8v2a1,1,0,0,0,2,0V8h3a1,1,0,0,1,1,1Z"/></svg>
